Default.style/WC.svg

<?xml version="1.0" encoding="UTF-8" standalone="no"?>
<svg width="43px" height="37px" viewBox="0 0 43 37" version="1.1" xmlns="http://www.w3.org/2000/svg" xmlns:xlink="http://www.w3.org/1999/xlink" xmlns:sketch="http://www.bohemiancoding.com/sketch/ns">
    <!-- Generator: Sketch 3.2.2 (9983) - http://www.bohemiancoding.com/sketch -->
    <title>amenity_toilets</title>
    <desc>Created with Sketch.</desc>
    <defs></defs>
    <g id="p" stroke="none" stroke-width="1" fill="none" fill-rule="evenodd" sketch:type="MSPage">
        <g id="amenity_toilets" sketch:type="MSLayerGroup" fill="#888888">
            <path d="M22,37 L25,37 L25,0 L22,0 L22,37 L22,37 Z M12.3415603,6.8937747 L6.47087271,6.8937747 C5.55548566,6.89380403 4.73220653,7.22418688 4.00103046,7.88492733 C3.45179728,8.39789028 3.08620518,8.96682163 2.9042527,9.59172544 L0.379153987,18.0131616 C0.306589716,18.1968499 0.270308961,18.3620425 0.270313103,18.5087371 C0.270308961,19.3531927 0.690599956,19.7754123 1.53118763,19.775396 C2.11724612,19.7754123 2.50181604,19.4450279 2.68489744,18.7842434 L4.98896603,11.076775 L6.24984161,11.076775 L2.46386731,24.7832352 L6.14100097,24.7832352 L6.14100097,35.4624829 C6.14099163,36.4166769 6.59812134,36.8937731 7.51239133,36.8937747 C8.42663858,36.8937731 8.8837691,36.4166769 8.88378129,35.4624829 L8.88378129,24.7294782 L10.2568451,24.7294782 L10.2568451,35.51792 C10.2568321,36.4351562 10.713961,36.8937731 11.6282359,36.8937747 C12.5424791,36.8937731 12.9996096,36.4351562 12.9996251,35.51792 L12.9996251,24.7832352 L16.6750846,24.7832352 L12.8355271,11.076775 L14.1516606,11.076775 L16.4557294,18.7842434 C16.6387843,19.4450279 17.0227962,19.7754123 17.607765,19.775396 C18.4494418,19.7754123 18.8702916,19.3531927 18.8703135,18.5087371 C18.8702916,18.3250839 18.8340108,18.1598912 18.7614737,18.0131616 L16.2363742,9.59172544 C16.0532787,9.00377944 15.6329877,8.43484728 14.9754996,7.88492733 C14.1706209,7.22418688 13.2926414,6.89380403 12.3415603,6.8937747 L12.3415603,6.8937747 L12.3415603,6.8937747 Z M9.54206453,6.26706753 C10.4283894,6.267097 11.1802453,5.96387101 11.7976382,5.3573862 C12.4149995,4.75096538 12.7236865,4.03051169 12.7237036,3.19602681 C12.7236865,2.32341532 12.4149995,1.58386591 11.7976382,0.977376888 C11.1802453,0.370960282 10.4283894,0.0677342959 9.54206453,0.0676980883 C8.6933796,0.0677342959 7.96035479,0.370960282 7.34298924,0.977376888 C6.72560143,1.58386591 6.41691352,2.32341532 6.41692294,3.19602681 C6.41691352,4.03051169 6.72560143,4.75096538 7.34298924,5.3573862 C7.96035479,5.96387101 8.6933796,6.267097 9.54206453,6.26706753 L9.54206453,6.26706753 L9.54206453,6.26706753 Z M35.4991175,6.21151329 C36.3477442,6.21154444 37.080769,5.90802795 37.6981919,5.3009655 C38.3155215,4.69396537 38.6242094,3.97322285 38.6242574,3.13873797 C38.6242094,2.26728344 38.3155215,1.53757239 37.6981919,0.949601452 C37.080769,0.361702084 36.3477442,0.0677342959 35.4991175,0.0676980883 C34.6504009,0.0677342959 33.9176707,0.361702084 33.3009251,0.949601452 C32.6840948,1.53757239 32.3757015,2.26728344 32.3757426,3.13873797 C32.3757015,3.97322285 32.6840948,4.69396537 33.3009251,5.3009655 C33.9176707,5.90802795 34.6504009,6.21154444 35.4991175,6.21151329 L35.4991175,6.21151329 L35.4991175,6.21151329 Z M39.2896271,7 L31.7103737,7 C30.6859686,7.00002689 29.8114815,7.3763087 29.0869093,8.12884137 C28.3622696,8.88143025 27.9999671,9.80813248 28,10.9089529 L28,20.0455223 C27.9999671,20.9268856 28.3886872,21.3675591 29.1661635,21.3675444 C29.907987,21.3675591 30.2789168,20.9268856 30.2789529,20.0455223 L30.2789529,11.1290098 L31.6569989,11.1290098 L31.6569989,35.3487306 C31.6569612,36.4495755 32.1869376,36.9999984 33.2469272,37 C34.30684,36.9999984 34.8368156,36.4495755 34.8368556,35.3487306 L34.8368556,21.3121104 L36.2149023,21.3121104 L36.2149023,35.3487306 C36.2148608,36.4495755 36.7448364,36.9999984 37.8048307,37 C38.9003233,36.9999984 39.4480908,36.4495755 39.4481347,35.3487306 L39.4481347,11.1290098 L40.7728066,11.1290098 L40.7728066,20.0455223 C40.7727603,20.9627218 41.1436893,21.421313 41.8855953,21.4213 C42.6284842,21.421313 42.9999521,20.9627218 43,20.0455223 L43,10.9627069 C42.9999521,9.898843 42.6554414,8.97242025 41.9664663,8.18343618 C41.2773963,7.3945067 40.3851181,7.00002689 39.2896271,7 L39.2896271,7 L39.2896271,7 Z" id="flowRoot3192" sketch:type="MSShapeGroup"></path>
        </g>
    </g>
</svg>

<svg width="43" height="37" xmlns="http://www.w3.org/2000/svg"><path d="M22 37h3V0h-3v37ZM12.342 6.894H6.47c-.916 0-1.739.33-2.47.99-.55.514-.915 1.083-1.097 1.708L.38 18.013a1.367 1.367 0 0 0-.109.496c0 .844.42 1.266 1.261 1.266.586 0 .97-.33 1.154-.99l2.304-7.708h1.26L2.465 24.783H6.14v10.68c0 .954.457 1.43 1.371 1.43.915 0 1.372-.476 1.372-1.43V24.728h1.373v10.789c0 .917.457 1.376 1.371 1.376.914 0 1.372-.459 1.372-1.376V24.783h3.675l-3.84-13.706h1.317l2.304 7.707c.183.661.567.991 1.152.991.841 0 1.262-.422 1.262-1.266 0-.184-.036-.35-.109-.496l-2.525-8.421c-.183-.588-.603-1.157-1.26-1.707-.805-.66-1.683-.991-2.634-.991Zm-2.8-.627c.886 0 1.638-.303 2.256-.91.617-.606.926-1.326.926-2.161 0-.873-.309-1.612-.926-2.219-.618-.606-1.37-.91-2.256-.91-.849 0-1.582.304-2.199.91a2.992 2.992 0 0 0-.926 2.219c0 .835.309 1.555.926 2.161.617.607 1.35.91 2.2.91ZM35.5 6.212c.849 0 1.582-.304 2.2-.911.617-.607.925-1.328.925-2.162 0-.872-.308-1.601-.926-2.19A3.08 3.08 0 0 0 35.5.069c-.849 0-1.581.294-2.198.882-.617.588-.925 1.317-.925 2.189 0 .834.308 1.555.925 2.162s1.35.91 2.198.91ZM39.29 7H31.71c-1.024 0-1.899.376-2.623 1.129-.725.752-1.087 1.68-1.087 2.78v9.137c0 .88.389 1.322 1.166 1.322.742 0 1.113-.441 1.113-1.322v-8.917h1.378v24.22c0 1.1.53 1.651 1.59 1.651s1.59-.55 1.59-1.651V21.312h1.378V35.35c0 1.1.53 1.651 1.59 1.651 1.095 0 1.643-.55 1.643-1.651v-24.22h1.325v8.917c0 .917.37 1.375 1.113 1.375.742 0 1.114-.458 1.114-1.375v-9.083c0-1.064-.345-1.99-1.034-2.78C41.277 7.395 40.386 7 39.29 7Z" fill="#888" fill-rule="evenodd"/></svg>
